assets/print_download.svg

<svg enable-background="new 0 0 258 361.6" viewBox="0 0 258 361.6" xmlns="http://www.w3.org/2000/svg"><path d="m18.5 360c-9.4 0-17-7.6-17-17v-324.5c0-9.4 7.6-17 17-17h170.2l67.7 67.7v273.8c0 9.4-7.6 17-17 17z" fill="#0d7236"/><path d="m188.1 3 66.8 66.8v273.2c0 8.5-7 15.5-15.5 15.5h-220.9c-8.5 0-15.5-7-15.5-15.5v-324.5c0-8.5 7-15.5 15.5-15.5zm1.2-3h-170.8c-10.2 0-18.5 8.3-18.5 18.5v324.5c0 10.2 8.3 18.5 18.5 18.5h220.9c10.2 0 18.5-8.3 18.5-18.5v-274.4z" fill="#fff"/><path d="m206.4 68.4c-9.4 0-17-7.6-17-17v-44.8l61.6 61.8z" fill="#fff"/><path d="m190.9 10.2 56.5 56.7h-41c-8.5 0-15.5-7-15.5-15.5zm-3-7.2v48.4c0 10.2 8.3 18.5 18.5 18.5h48.2z" fill="#0d7236"/><path d="m62.8 147v89.6h146.4v-89.6" style="fill:#0d7236;stroke:#fff;stroke-width:7;stroke-linecap:round;stroke-linejoin:round;stroke-miterlimit:10"/><path d="m147 175.1v-28.2c0-2-1.7-3.7-3.7-3.7h-14c-2 0-3.7 1.7-3.7 3.7v28.3c0 2.2-1.9 4-4.2 3.7l-10-1.1c-3.1-.4-5.2 3-3.6 5.6l25.1 31.4c1.4 2.4 4.9 2.4 6.4 0l25.1-31.4c1.6-2.6-.5-6-3.6-5.6l-9.5 1.1c-2.4.2-4.3-1.6-4.3-3.8z" fill="#fff"/></svg>

<?xml version="1.0" encoding="utf-8"?>
<!-- Generator: Adobe Illustrator 26.2.1, SVG Export Plug-In . SVG Version: 6.00 Build 0)  -->
<svg version="1.1" id="Layer_1" xmlns="http://www.w3.org/2000/svg" xmlns:xlink="http://www.w3.org/1999/xlink" x="0px" y="0px"
	 viewBox="0 0 258 361.6" style="enable-background:new 0 0 258 361.6;" xml:space="preserve">
<style type="text/css">
	.st0{fill:#0D7236;}
	.st1{fill:#FFFFFF;}
	.st2{fill:#0D7236;stroke:#FFFFFF;stroke-width:7;stroke-linecap:round;stroke-linejoin:round;stroke-miterlimit:10;}
</style>
<g>
	<g>
		<path class="st0" d="M18.5,360c-9.4,0-17-7.6-17-17V18.5c0-9.4,7.6-17,17-17h170.2l67.7,67.7V343c0,9.4-7.6,17-17,17H18.5z"/>
		<path class="st1" d="M188.1,3l66.8,66.8V343c0,8.5-7,15.5-15.5,15.5H18.5C10,358.5,3,351.5,3,343V18.5C3,10,10,3,18.5,3H188.1
			 M189.3,0H18.5C8.3,0,0,8.3,0,18.5V343c0,10.2,8.3,18.5,18.5,18.5h220.9c10.2,0,18.5-8.3,18.5-18.5V68.6L189.3,0L189.3,0z"/>
	</g>
	<g>
		<g>
			<path class="st1" d="M206.4,68.4c-9.4,0-17-7.6-17-17V6.6l61.6,61.8H206.4z"/>
			<path class="st0" d="M190.9,10.2l56.5,56.7h-41c-8.5,0-15.5-7-15.5-15.5V10.2 M187.9,3v48.4c0,10.2,8.3,18.5,18.5,18.5h48.2
				L187.9,3L187.9,3z"/>
		</g>
	</g>
</g>
<polyline class="st2" points="62.8,147 62.8,236.6 209.2,236.6 209.2,147 "/>
<path class="st1" d="M147,175.1v-28.2c0-2-1.7-3.7-3.7-3.7h-14c-2,0-3.7,1.7-3.7,3.7v28.3c0,2.2-1.9,4-4.2,3.7l-10-1.1
	c-3.1-0.4-5.2,3-3.6,5.6l25.1,31.4c1.4,2.4,4.9,2.4,6.4,0l25.1-31.4c1.6-2.6-0.5-6-3.6-5.6l-9.5,1.1
	C148.9,179.1,147,177.3,147,175.1z"/>
</svg>
